latex_in_markdown/.watch-latex-md-images/bf178f97bb21c0e45a177271d3c0554a.svg

<ns0:svg xmlns:ns0="http://www.w3.org/2000/svg" xmlns:ns1="http://www.w3.org/1999/xlink" height="11.7639pt" version="1.1" viewBox="23.686 62.9559 16.9342 11.7639" width="16.9342pt" watch_lated_md:baseline="-7.105427357601002e-15" xmlns:watch_lated_md="https://github.com/Quansight/pearu-sandbox/latex_in_markdown/">
<ns0:defs>
<ns0:path d="m2.92662 -1.91091c-0.60254 1.01571 -1.18787 1.36002 -2.01421 1.41167c-0.18937 0.0172154 -0.327093 0.0172154 -0.327093 0.327093c0 0.103293 0.0860772 0.172154 0.206585 0.172154c0.309878 0 1.08457 -0.0344309 1.39445 -0.0344309c0.499248 0 1.05014 0.0344309 1.53217 0.0344309c0.103293 0 0.309878 0 0.309878 -0.327093c0 -0.154939 -0.137724 -0.172154 -0.241016 -0.172154c-0.395955 -0.0344309 -0.723049 -0.172154 -0.723049 -0.585325c0 -0.241016 0.103293 -0.430386 0.327093 -0.809126l1.30837 -2.16915h4.38994c0.0172154 0.154939 0.0172154 0.292662 0.0344309 0.447601c0.0516463 0.447601 0.258232 2.23801 0.258232 2.5651c0 0.516463 -0.877987 0.550894 -1.15343 0.550894c-0.18937 0 -0.37874 0 -0.37874 0.309878c0 0.18937 0.154939 0.18937 0.258232 0.18937c0.292662 0 0.636971 -0.0344309 0.929634 -0.0344309h0.98128c1.05014 0 1.80762 0.0344309 1.82484 0.0344309c0.120508 0 0.309878 0 0.309878 -0.327093c0 -0.172154 -0.154939 -0.172154 -0.413171 -0.172154c-0.946849 0 -0.964065 -0.154939 -1.01571 -0.671402l-1.05014 -10.7424c-0.0344309 -0.344309 -0.103293 -0.37874 -0.292662 -0.37874c-0.172154 0 -0.275447 0.0344309 -0.430386 0.292662l-6.0254 10.0882zm2.06585 -2.65118l3.4603 -5.78439l0.585325 5.78439h-4.04563z" id="g0-65" />
<ns0:path d="m2.85776 -0.705833c0 -0.430386 -0.344309 -0.705833 -0.705833 -0.705833c-0.344309 0 -0.705833 0.275447 -0.705833 0.705833s0.344309 0.705833 0.705833 0.705833c0.344309 0 0.705833 -0.275447 0.705833 -0.705833z" id="g1-46" />
</ns0:defs>
<ns0:g id="page1">
<ns0:use x="27.9837" ns1:href="#g0-65" y="74.7198" />
</ns0:g>
</ns0:svg>

<ns0:svg xmlns:ns0="http://www.w3.org/2000/svg" xmlns:ns1="http://www.w3.org/1999/xlink" height="11.7639pt" version="1.1" viewBox="23.686 62.9559 16.9342 11.7639" width="16.9342pt" watch_lated_md:baseline="-7.105427357601002e-15" xmlns:watch_lated_md="https://github.com/Quansight/pearu-sandbox/latex_in_markdown/">
<ns0:defs>
<ns0:path d="M2.92662 -1.91091C2.32408 -0.895203 1.73876 -0.550894 0.912418 -0.499248C0.723049 -0.482032 0.585325 -0.482032 0.585325 -0.172154C0.585325 -0.0688618 0.671402 0 0.79191 0C1.10179 0 1.87648 -0.0344309 2.18636 -0.0344309C2.68561 -0.0344309 3.2365 0 3.71854 0C3.82183 0 4.02841 0 4.02841 -0.327093C4.02841 -0.482032 3.89069 -0.499248 3.7874 -0.499248C3.39144 -0.533679 3.06435 -0.671402 3.06435 -1.08457C3.06435 -1.32559 3.16764 -1.51496 3.39144 -1.8937L4.69982 -4.06284H9.08975C9.10697 -3.90791 9.10697 -3.77018 9.12418 -3.61524C9.17583 -3.16764 9.38242 -1.37724 9.38242 -1.05014C9.38242 -0.533679 8.50443 -0.499248 8.22898 -0.499248C8.03961 -0.499248 7.85024 -0.499248 7.85024 -0.18937C7.85024 0 8.00518 0 8.10847 0C8.40114 0 8.74544 -0.0344309 9.03811 -0.0344309H10.0194C11.0695 -0.0344309 11.827 0 11.8442 0C11.9647 0 12.1541 0 12.1541 -0.327093C12.1541 -0.499248 11.9992 -0.499248 11.7409 -0.499248C10.7941 -0.499248 10.7769 -0.654187 10.7252 -1.17065L9.67508 -11.9131C9.64065 -12.2574 9.57179 -12.2918 9.38242 -12.2918C9.21026 -12.2918 9.10697 -12.2574 8.95203 -11.9992L2.92662 -1.91091ZM4.99248 -4.56209L8.45278 -10.3465L9.03811 -4.56209H4.99248Z" id="g0-65" />
<ns0:path d="M2.85776 -0.705833C2.85776 -1.13622 2.51345 -1.41167 2.15193 -1.41167C1.80762 -1.41167 1.4461 -1.13622 1.4461 -0.705833S1.79041 0 2.15193 0C2.49624 0 2.85776 -0.275447 2.85776 -0.705833Z" id="g1-46" />
</ns0:defs>
<ns0:g id="page1">
<ns0:use x="27.9837" ns1:href="#g0-65" y="74.7198" />
</ns0:g>
</ns0:svg>
